X:37
T:Smash the Windows. JGi.037
M:6/8
L:1/8
Q:3/8=110
S:Joshua Gibbons MS,1823,Tealby,Lincs.
R:jig
O:Tealby,Lincolnshire
Z:VMP/R.Greig, 2009
K:D
D2DF2A|d2f dcB|G2fF2d|E2B AFD|D2DF2A|d2f ecA|faf gec|d3d3:|
|:f/2g/2|a2fd2A|F2g agf|g2ec2A|F2g gfe|f2eg2e|a2ag2g|fed ABc|d3d2:|

